X: 1
T: Parson's Farewell
C: Trad
R: Playford
M: 4/4
L:1/8
K:Am
G: Dance Tune
Z: ABC transcription by Verge Roller
r: 24
|: "Am" c2 A2 A2  Bc | "G" d2 G2 G4 | "F" AB c2 B2 A2 | [1 "C" G2 E2 E4 :| [2 "C" G2 E2 E2 |]
|: e2 | "C" c6 e2 |  "C" c6 e2 |  "C" cd e2 cd e2 | "G" d2 B2 B4 |
"G" Bc d2 Bc d2 | "Am" c2 A2 ABcd | "F" e2 dc "G" BA B2 | [1 "Am" A4-A2 :| [2 "Am" A4-A4 |]
